X:1
T:Title
%%score { ( 1 2 ) | ( 3 4 ) }
L:1/8
M:3/4
K:Db
V:1 treble nm="Grand Piano"
V:2 treble 
V:3 bass 
V:4 bass 
V:1
 z2 z2 z E | F2 _F2 =F2 | [DA]2 [CG]2 C2 | E2 D2 D2 | D4 D2 | D2 G2 B2 | [DBd]2 [DAc]2 [DGB]2 | %7
 [DFA]6- | [DFA]4[K:bass] D-[DE] | F2 _F2 =F2 | [CA]2 [CG]2 C2 | E2 D2 D2 |[M:2/4] D4 |[M:1/4] F2 | %14
[M:3/4] E2 A2 c2 | [=Ge]2 [Ed]2 [DB]2 | [CA]6- |[M:2/4] [CA]4 |[M:1/4] [DF][EG] | %19
[M:3/4] [FA]2 [FA]2 [FA]2 | [Fd]4 [FA]2 | B2 B2 B2 | d4 B2 | [FA]2 [FA]2 [FA]2 | %24
 [GB]2 [FA]2 [DF]2 | [DF]2 [CE]2 [CE]2 | [CE]4 [DF][EG] | [FA]2 [FA]2 [FA]2 | [Fd]4 [FA]2 | %29
 B2 B2 B2 | e4 d2 | c2 c2 c2 | [Gc]2 [GB]2 [Gc]2 | [Fd]6- |[M:2/4] [Fd]4 |] %35
V:2
 z2 z2 D2 | x6 | x6 | x6 | x6 | x6 | x6 | x6 | z2 z2[K:bass] .F,2 | x6 | x6 | x6 |[M:2/4] x4 | %13
[M:1/4] x2 |[M:3/4] x6 | x6 | x6 |[M:2/4] x4 |[M:1/4] x2 |[M:3/4] x6 | x6 | x6 | x6 | x6 | x6 | %25
 x6 | x6 | x6 | x6 | x6 | x6 | x6 | x6 | x6 |[M:2/4] x4 |] %35
V:3
 z2 z2 F,G, | [D,A,D]2 [D,=G,D]2 [D,A,D]2 | [A,,A,]2 [A,,E,]2 [A,,G,A,]2 | %3
 [D,G,A,]2 [D,F,A,]2 [D,F,A,]2 | [D,F,A,]4 [D,F,_C]2 | [G,B,]2 [G,B,D]2 [G,DG]2 | G,2 G,2 G,2 | %7
 D,6- | D,4 z G, | [D,A,D]2 [D,=G,D]2 [D,A,D]2 | [A,,A,]2 [A,,E,]2 [A,,G,A,]2 | %11
 [D,G,A,]2 [D,F,A,]2 [D,F,A,]2 |[M:2/4] [D,F,A,]4 |[M:1/4] [D,A,D]2 | %14
[M:3/4] [E,A,C]2 [E,CE]2 [E,A,E]2 | [E,B,]2 [E,B,]2 [E,=G,]2 | [A,,A,]6- |[M:2/4] [A,,A,]4 | %18
[M:1/4] [D,A,]2 |[M:3/4] [D,D]2 [D,D]2 [D,D]2 | [D,A,]4 [D,D]2 | [G,DG]2 [G,DG]2 [DG]2 | %22
 [G,B,G]4 [G,DG]2 | [D,D]2 [D,D]2 [D,D]2 | [D,D]2 [D,D]2 [D,A,]2 | [A,,A,]2 [A,,A,]2 [A,,A,]2 | %26
 [A,,A,]4 [D,A,]2 | [D,D]2 [D,D]2 [D,D]2 | [D,A,]4 [D,D]2 | [G,DG]2 [G,DG]2 [G,DG]2 | %30
 [G,B,G]4 [G,B,G]2 | [A,G]2 [A,G]2 [A,G]2 | [A,,A,]2 [A,,A,]2 [A,,A,]2 | [D,A,]6- | %34
[M:2/4] [D,A,]4 |] %35
V:4
 z2 z2 D,2 | x6 | x6 | x6 | x6 | x6 | x6 | x6 | z2 z2 D,2 | x6 | x6 | x6 |[M:2/4] x4 |[M:1/4] x2 | %14
[M:3/4] x6 | x6 | x6 |[M:2/4] x4 |[M:1/4] x2 |[M:3/4] x6 | x6 | x6 | x6 | x6 | x6 | x6 | x6 | x6 | %28
 x6 | x6 | x6 | x6 | x6 | x6 |[M:2/4] x4 |] %35

